X:381
T:Branle de Rat
S:http://lesters-tune-a-day.blogspot.co.uk/2014/05/tune-381-branle-du-rat.html 2015
K:G
M:4/4
L:1/8
|: "G"B2B2 B2AB | "Am"c2B2 A4 |\
[1 "D7"A2A2 A2GA | "G"G2"(D)"A2 "G"B2G2 :|\
[2 "D7"d2d2 d2cc | "G"B2"(D)"A2 "G"G4 ||
M:6/8
|:\
"G"B2G B2G | "D7"DEF E2D |\
"G"B2G B2G | "D7"DEF "G"G3 :| 
